X:1
T:Title
%%score { ( 1 2 ) | ( 3 4 ) }
L:1/8
M:4/4
K:D
V:1 treble nm="Grand Piano"
V:2 treble 
V:3 bass 
V:4 bass 
V:1
 z4 z2[Q:1/4=100] z E | [A,DF]2 [B,DG]2 [CEA]2 [B,B]c | d2 .[Be]2 [EAc]2 [EAc]2 | %3
 [DAd]2 [DFA]2 [A,EG]2 [A,DF]2 | E4 z4 | [A,DF]2 [B,E^G]2 [CEA]2 [Fd]2 | z2 B2 z4 | %7
 B2 d2 [A,EG]2 [A,DF]2 |[M:7/4][K:bass] E4 z2 z2 z2 z4 |[M:4/4] [G,B,D]4 [F,A,D]4 |] %10
V:2
 z4 z2 D2 | z4 z2 E2 | x8 | x8 | [B,D]2 .[A,C]2 [F,D]4 | x8 | c2 z D [CA]4 | x8 | %8
[M:7/4][K:bass] [B,D]2 .[A,C]2 [F,A,D]2 z2 z2 z4 |[M:4/4] x8 |] %10
V:3
 z4 z2 F,G, | z4 z2 G,2 | [F,A,D]2 z[K:treble] d A,2[K:bass] =G,2 | F,2 D,2 C,2 D,2 | %4
 G,,2 z G, D,4 | D,2 D,2 C,2 [D,A,]2 | [E,A,E]2 .[E,,^G,E]2 [A,,A,]4 | [G,D]2 [F,A,D]2 C,2 D,2 | %8
[M:7/4] G,,2 z G, D,2 z2 z2 z4 |[M:4/4] G,,4 D,4 |] %10
V:4
 z4 z2 D,2 | D,C, B,,2 A,,2 z A, | z2 [^G,B,]2[K:treble] z4[K:bass] | x8 | z2 A,,2 z4 | x8 | x8 | %7
 x8 |[M:7/4] z2 A,,2 z2 z2 z2 z4 |[M:4/4] x8 |] %10

